X: 90
T: Marione
%R: reel
B: Chas & Sam Thompson "Twenty Four Country Dances for the Year 1776", London 1776, p.45 #2
F: http://www.vwml.org/browse/browse-collections-dance-tune-books/browse-thompsons1776#
Z: 2014 John Chambers <jc:trillian.mit.edu> (added dance description)
M: 2/4
L: 1/16
K: C
% - - - - - - - - - - - - - - - - - - - - - - - - - - - - -
|:\
EDEF E2F2 | GFGA G2c2 | B2c2d2B2 | cBcd c2G2 |\
EDEF E2F2 | GFGA G2c2 | B2c2d2B2 | c4- c2z2 :|
|: g2 |\
e2g2e2g2 | c2cc c2f2 | [d2G2][f2d2][d2G2][f2d2] | [d2G2][dG][dG] [d2G2][f2d2] |\
e2c2e2g2 | c'2(ba) g2f2 | e4 Td4 | c4 z4 :|
% - - - - - - - - - - Dance description - - - - - - - - - -
%%begintext align
%% Foot it & turn corners .| lead down the middle
%% up again & cast off :| Allemand right hand and
%% then left .|| lead thro' the bottom & cast up, lead
%% thro' the top & cast off :||.
%%endtext

%%sep 1 1 500
%%sep 1 1 500
